X:88
T:RVW2/2/88 The Bold Young Farmer
C:John Denny, Billericay, Essex, 25 April 1904
L:1/8
Q:1/4=60
M:6/8
I:linebreak $
K:C
"^(Editorial suggestion " G | G2 G ddd | (cA)B G2 d |$ g2 f edc | f2 g d2 d/d/ | g2 f edc |$ 
w: A|bold young far- mer he|cour- * ted me he|gained my heart and my|li- ber- ty he has|gained my heart with a|
G2 A B2 G |"^(a)" (c>B) A fed | (cA)B G2 ||$ G | G2 G ddd | cAB G2 d |$ g2 f edc | f2 g d2 d/d/ | 
w: free good will I|must _ con- fess that I|love _ him still.||||||
g2 f edc |$ G2 A B2 G |"^(a) var." c2 A fed | cAB G2 |] 
w: ||||



